X: 5
T: The Rambling Rover
C: Andy M. Stewart (1952-2015), Scotland
R: song
D: Silly Wizard
D: The Dubliners
Z: id:hn-song-107 modified by John Chambers
M: 6/8
L: 1/8
%Q: 3/8=100
K: C
%%continueall
%%vocalspace     0.90cm
% = = = = = = = = = =
"^Chorus:"[|]
G,2A, | "C"C2C "G"D2D | "C"D2C- C2G | G2E G2A | A2G- G
w: There are so-ber men and plen-ty,* and drunk-ards bare-ly twen-ty,
%
EG | "F"A2A c2B | "C"A2G E2C | "Dm"DDE D2C | "F"A,3 ||
w: There are men of o-ver nine-ty that have ne-ver yet kissed a girl.
%
"G"G,2A, | "C"C2C D2D | D2C- C2G | G2E G2A | A2G- G
w: But give me a ramb-lin' ro-ver,* frae Ork-ney down to Do-ver.
%
EG | "F"A2A c2B | "C"A2G E2C | "Dm"DED "G7"C2B, | "C"C3 |]|
w: We will roam the coun-try o-ver and to-geth-er we'll face the world.
% = = = = = = = = = =
"^Verse: "[|]
G, | "C"C-CC "G"D2D | "C"D2C- C2E | G2E G2A | A2G- G
w: 1.~There's ma-ny that feign en-joy-ment* from mer-ci-less em-ploy-ment,
w: 2.~I~have roamed* through all the na-tions, taken de-light in all cre-a-tion,*
w: 3.~If~you're bent* with ar-thi-ri-tis,* your bowels have got co-li-tis,*
%
EG | "F"A-AA c2B | "C"A2G E2C | "Dm"DDE D2C | "F"A,3 ||
w: Their am-bi-tion was this de-ploy-ment from the minu-te they left the school.
w: I've en-joyed* a wee sen-sa-tion where the com-pa-ny it was kind.
w: You have gal-lop-ing bal-li-ci-tus, and you're think-in' it's time you died,
%
"G"G,2A, | "C"C2C "G"D2D | "C"D2C- CGG | G2E G2A | A2G- G
w: And they save and scrape and pon-der,* while the rest go out and squan-der,*
w: But when part-ing was no plea-sure,** I've drunk a-no-ther mea-sure*
w: If you've been a man of ac-tion,* though you're ly-ing there in trac-tion,*
%
EG | "F"A2A c2B | "C"A2G E2C | "Dm"DED "G7"C2B, | "C"C3 |]
w: See the world and rove and wan-der and they're hap-pi-er as a rule.
w: To the good friends that we trea-sure, for they al-ways are on our mind.
w: You may gain some sa-tis-fac-tion think-in', "Je-sus, at least I tried!"
% = = = = = = = = = =

% %sep 5 5 400
%%sep 2 1 500
%%sep 1 1 500

